svg/fluentui-system-icons/ic_fluent_folder_arrow_right_48_filled.svg

<svg width="48" height="48" viewBox="0 0 48 48" fill="none" xmlns="http://www.w3.org/2000/svg">
<path d="M40.25 12.5C42.2543 12.5 43.8913 14.0724 43.9948 16.0508L44 16.25L44.0009 24.0564C41.8778 22.1557 39.0739 21 36 21C29.3726 21 24 26.3726 24 33C24 35.1862 24.5846 37.2358 25.606 39.0011L7.75 39C5.74574 39 4.10873 37.4276 4.0052 35.4492L4 35.25V18.999L17.8036 19L18.0297 18.9932C19.0049 18.9344 19.9192 18.4968 20.5769 17.7743L20.724 17.6025L24.833 12.5H40.25ZM36 23C41.5228 23 46 27.4772 46 33C46 38.5228 41.5228 43 36 43C30.4772 43 26 38.5228 26 33C26 27.4772 30.4772 23 36 23ZM35.9991 27.6342L35.8871 27.7097L35.7929 27.7929L35.7097 27.8871C35.4301 28.2467 35.4301 28.7533 35.7097 29.1129L35.7929 29.2071L38.585 32H31L30.8834 32.0067C30.4243 32.0601 30.06 32.4243 30.0067 32.8834L30 33L30.0067 33.1166C30.06 33.5757 30.4243 33.9399 30.8834 33.9933L31 34H38.585L35.7929 36.7929L35.7097 36.8871C35.4047 37.2794 35.4324 37.8466 35.7929 38.2071C36.1534 38.5676 36.7206 38.5953 37.1129 38.2903L37.2071 38.2071L41.7071 33.7071L41.781 33.623L41.8296 33.5585L41.8751 33.4843L41.9063 33.4232L41.9503 33.3121L41.9726 33.2335L41.9932 33.1175L42 33L41.997 32.924L41.9798 32.7992L41.9505 32.6883L41.9288 32.6287L41.8753 32.5159L41.8296 32.4415L41.7872 32.3833L41.7485 32.3369L41.7071 32.2929L37.2071 27.7929L37.1129 27.7097C36.7893 27.4581 36.3465 27.4329 35.9991 27.6342ZM17.0607 9C17.8933 9 18.7 9.27703 19.3552 9.78393L19.5301 9.92784L21.974 12.066L18.7771 16.0342L18.6826 16.1388C18.4832 16.336 18.223 16.4605 17.9443 16.4921L17.8036 16.5L4 16.499V12.75C4 10.7457 5.57236 9.10873 7.55084 9.0052L7.75 9H17.0607Z" fill="#212121"/>
</svg>

<svg xmlns="http://www.w3.org/2000/svg" width="48" height="48"><path d="M40.25 12.5a3.75 3.75 0 0 1 3.745 3.55l.005.2v7.806A11.955 11.955 0 0 0 36 21c-6.627 0-12 5.373-12 12 0 2.186.585 4.236 1.606 6.001L7.75 39a3.75 3.75 0 0 1-3.745-3.55L4 35.25V18.999L17.804 19l.226-.007a3.75 3.75 0 0 0 2.547-1.219l.147-.172 4.109-5.102H40.25ZM36 23c5.523 0 10 4.477 10 10s-4.477 10-10 10-10-4.477-10-10 4.477-10 10-10Zm0 4.634-.113.076-.094.083-.083.094a1 1 0 0 0 0 1.226l.083.094L38.585 32H31l-.117.007a1 1 0 0 0-.876.876L30 33l.007.117a1 1 0 0 0 .876.876L31 34h7.585l-2.792 2.793-.083.094a1 1 0 0 0 1.403 1.403l.094-.083 4.5-4.5.074-.084.049-.064.045-.075.031-.06.044-.112.023-.078.02-.117L42 33l-.003-.076-.017-.125-.03-.11-.021-.06-.054-.113-.045-.075-.043-.058-.038-.046-.042-.044-4.5-4.5-.094-.083a1.001 1.001 0 0 0-1.114-.076ZM17.06 9c.833 0 1.64.277 2.295.784l.175.144 2.444 2.138-3.197 3.968-.094.105c-.2.197-.46.322-.739.353l-.14.008L4 16.499V12.75a3.75 3.75 0 0 1 3.55-3.745L7.75 9h9.31Z"/></svg>
